48x48/apps/jokosher.svg

<svg viewBox="0 0 48 48"><defs><linearGradient id="linearGradient3764" x1="1" x2="47" gradientUnits="userSpaceOnUse" gradientTransform="matrix(0,-1,1,0,-1.5e-6,47.999998)"><stop stop-color="#f88e10" stop-opacity="1"/><stop offset="1" stop-color="#f99824" stop-opacity="1"/></linearGradient><clipPath id="clipPath-161930992"><g transform="translate(0,-1004.3622)"><path d="m -24 13 c 0 1.105 -0.672 2 -1.5 2 -0.828 0 -1.5 -0.895 -1.5 -2 0 -1.105 0.672 -2 1.5 -2 0.828 0 1.5 0.895 1.5 2 z" transform="matrix(15.333333,0,0,11.5,414.99999,878.8622)" fill="#1890d0"/></g></clipPath><clipPath id="clipPath-167683090"><g transform="translate(0,-1004.3622)"><path d="m -24 13 c 0 1.105 -0.672 2 -1.5 2 -0.828 0 -1.5 -0.895 -1.5 -2 0 -1.105 0.672 -2 1.5 -2 0.828 0 1.5 0.895 1.5 2 z" transform="matrix(15.333333,0,0,11.5,414.99999,878.8622)" fill="#1890d0"/></g></clipPath><radialGradient id="radial0" gradientUnits="userSpaceOnUse" cx="21.561" cy="27.06" r="13.438" gradientTransform="matrix(3.377318,0,0,3.675381,-53.667491,-63.501833)"><stop stop-color="#ce5b00" stop-opacity="0.71"/><stop offset="1" stop-color="#f47800" stop-opacity="0.71"/></radialGradient><radialGradient id="radial1" gradientUnits="userSpaceOnUse" cx="24.471" cy="23.21" r="14.529" gradientTransform="matrix(3.23174,-0.000000591588,0.000000913104,2.140921,-54.375419,-22.763309)"><stop stop-color="#fff" stop-opacity="0.416"/><stop offset="1" stop-color="#fff" stop-opacity="0"/></radialGradient><radialGradient id="radial0" gradientUnits="userSpaceOnUse" cx="21.561" cy="27.06" r="13.438" gradientTransform="matrix(3.377318,0,0,3.675381,-53.667491,-63.501833)"><stop stop-color="#ce5b00" stop-opacity="0.71"/><stop offset="1" stop-color="#f47800" stop-opacity="0.71"/></radialGradient><radialGradient id="radial1" gradientUnits="userSpaceOnUse" cx="24.471" cy="23.21" r="14.529" gradientTransform="matrix(3.23174,-0.000000591588,0.000000913104,2.140921,-54.375419,-22.763309)"><stop stop-color="#fff" stop-opacity="0.416"/><stop offset="1" stop-color="#fff" stop-opacity="0"/></radialGradient></defs><g><path d="m 36.31 5 c 5.859 4.062 9.688 10.831 9.688 18.5 c 0 12.426 -10.07 22.5 -22.5 22.5 c -7.669 0 -14.438 -3.828 -18.5 -9.688 c 1.037 1.822 2.306 3.499 3.781 4.969 c 4.085 3.712 9.514 5.969 15.469 5.969 c 12.703 0 23 -10.298 23 -23 c 0 -5.954 -2.256 -11.384 -5.969 -15.469 c -1.469 -1.475 -3.147 -2.744 -4.969 -3.781 z m 4.969 3.781 c 3.854 4.113 6.219 9.637 6.219 15.719 c 0 12.703 -10.297 23 -23 23 c -6.081 0 -11.606 -2.364 -15.719 -6.219 c 4.16 4.144 9.883 6.719 16.219 6.719 c 12.703 0 23 -10.298 23 -23 c 0 -6.335 -2.575 -12.06 -6.719 -16.219 z" opacity="0.05"/><path d="m 41.28 8.781 c 3.712 4.085 5.969 9.514 5.969 15.469 c 0 12.703 -10.297 23 -23 23 c -5.954 0 -11.384 -2.256 -15.469 -5.969 c 4.113 3.854 9.637 6.219 15.719 6.219 c 12.703 0 23 -10.298 23 -23 c 0 -6.081 -2.364 -11.606 -6.219 -15.719 z" opacity="0.1"/><path d="m 31.25 2.375 c 8.615 3.154 14.75 11.417 14.75 21.13 c 0 12.426 -10.07 22.5 -22.5 22.5 c -9.708 0 -17.971 -6.135 -21.12 -14.75 a 23 23 0 0 0 44.875 -7 a 23 23 0 0 0 -16 -21.875 z" opacity="0.2"/></g><g><path d="m 24 1 c 12.703 0 23 10.297 23 23 c 0 12.703 -10.297 23 -23 23 -12.703 0 -23 -10.297 -23 -23 0 -12.703 10.297 -23 23 -23 z" fill="url(#linearGradient3764)" fill-opacity="1"/></g><g/><g><g clip-path="url(#clipPath-161930992)"><g transform="translate(1,1)"><g opacity="0.1"><!-- color: #f99824 --><g><path d="m 0 0 l 0 6.188 c 6.48 9.453 13.242 19.359 20.594 30.16 l -13.188 -36.34 l -7.406 0 m 20.594 36.33 l 17.719 -36.34 l -10.469 0 c -2.246 11.441 -4.652 23.48 -7.25 36.34 m 0 0 l 27.406 -7.75 l 0 -6.816 c -8.73 4.652 -17.93 9.551 -27.406 14.566 m 0 0 l 27.406 10.344 l 0 -6.125 c -8.805 -1.34 -17.844 -2.719 -27.406 -4.219 m 0 0 l 4.25 11.648 l 3.719 0 c -2.633 -3.852 -5.168 -7.543 -7.969 -11.648 m 0 0 l -5.625 11.648 l 3.344 0 c 0.742 -3.793 1.473 -7.645 2.281 -11.648 m 0 0 l -20.594 5.844 l 0 5.063 c 6.73 -3.57 13.434 -7.121 20.594 -10.906 m 0 0 l -20.594 -7.781 l 0 4.563 c 6.805 1.066 13.426 2.098 20.594 3.219 m 0 0" fill="#000" stroke="none" fill-rule="evenodd"/><path d="m 48 19.625 c -4.836 4.438 -12.11 6.527 -20.719 5.969 c -10.09 -0.656 -19.641 -0.313 -27.28 4.375 l 0 18.03 l 48 0 m 0 -28.375" fill="#000" stroke="none" fill-rule="evenodd"/><path d="m 23.402 12.195 l 5.598 -1.191 l 0 18.762 c 0 2.426 -0.738 4.238 -2.211 5.438 c -1.465 1.199 -3.684 1.801 -6.66 1.801 l -1.133 0 l 0 -3.793 l 0.871 0 c 1.164 0 2.043 -0.289 2.629 -0.871 c 0.602 -0.582 0.898 -1.438 0.898 -2.57 l 0 -17.57" fill="#000" stroke="none" fill-rule="nonzero" fill-opacity="1"/></g></g></g></g></g><g><g clip-path="url(#clipPath-167683090)"><!-- color: #f99824 --><g><path d="m 0 0 l 0 6.188 c 6.48 9.453 13.242 19.359 20.594 30.16 l -13.188 -36.34 l -7.406 0 m 20.594 36.33 l 17.719 -36.34 l -10.469 0 c -2.246 11.441 -4.652 23.48 -7.25 36.34 m 0 0 l 27.406 -7.75 l 0 -6.816 c -8.73 4.652 -17.93 9.551 -27.406 14.566 m 0 0 l 27.406 10.344 l 0 -6.125 c -8.805 -1.34 -17.844 -2.719 -27.406 -4.219 m 0 0 l 4.25 11.648 l 3.719 0 c -2.633 -3.852 -5.168 -7.543 -7.969 -11.648 m 0 0 l -5.625 11.648 l 3.344 0 c 0.742 -3.793 1.473 -7.645 2.281 -11.648 m 0 0 l -20.594 5.844 l 0 5.063 c 6.73 -3.57 13.434 -7.121 20.594 -10.906 m 0 0 l -20.594 -7.781 l 0 4.563 c 6.805 1.066 13.426 2.098 20.594 3.219 m 0 0" fill="url(#radial0)" stroke="none" fill-rule="evenodd"/><path d="m 48 19.625 c -4.836 4.438 -12.11 6.527 -20.719 5.969 c -10.09 -0.656 -19.641 -0.313 -27.28 4.375 l 0 18.03 l 48 0 m 0 -28.375" fill="url(#radial1)" stroke="none" fill-rule="evenodd"/><path d="m 23.402 12.195 l 5.598 -1.191 l 0 18.762 c 0 2.426 -0.738 4.238 -2.211 5.438 c -1.465 1.199 -3.684 1.801 -6.66 1.801 l -1.133 0 l 0 -3.793 l 0.871 0 c 1.164 0 2.043 -0.289 2.629 -0.871 c 0.602 -0.582 0.898 -1.438 0.898 -2.57 l 0 -17.57" fill="#f9f9f9" stroke="none" fill-rule="nonzero" fill-opacity="1"/></g></g></g><g><path d="m 40.03 7.531 c 3.712 4.084 5.969 9.514 5.969 15.469 0 12.703 -10.297 23 -23 23 c -5.954 0 -11.384 -2.256 -15.469 -5.969 4.178 4.291 10.01 6.969 16.469 6.969 c 12.703 0 23 -10.298 23 -23 0 -6.462 -2.677 -12.291 -6.969 -16.469 z" opacity="0.1"/></g></svg>

<?xml version="1.0" encoding="UTF-8" standalone="no"?>
<svg
   xmlns:dc="http://purl.org/dc/elements/1.1/"
   xmlns:cc="http://creativecommons.org/ns#"
   xmlns:rdf="http://www.w3.org/1999/02/22-rdf-syntax-ns#"
   xmlns:svg="http://www.w3.org/2000/svg"
   xmlns="http://www.w3.org/2000/svg"
   xmlns:sodipodi="http://sodipodi.sourceforge.net/DTD/sodipodi-0.dtd"
   xmlns:inkscape="http://www.inkscape.org/namespaces/inkscape"
   viewBox="0 0 48 48"
   id="svg2"
   version="1.1"
   inkscape:version="0.48.4 r9939"
   width="100%"
   height="100%"
   sodipodi:docname="jokosher.svg">
  <metadata
     id="metadata91">
    <rdf:RDF>
      <cc:Work
         rdf:about="">
        <dc:format>image/svg+xml</dc:format>
        <dc:type
           rdf:resource="http://purl.org/dc/dcmitype/StillImage" />
      </cc:Work>
    </rdf:RDF>
  </metadata>
  <sodipodi:namedview
     pagecolor="#ffffff"
     bordercolor="#666666"
     borderopacity="1"
     objecttolerance="10"
     gridtolerance="10"
     guidetolerance="10"
     inkscape:pageopacity="0"
     inkscape:pageshadow="2"
     inkscape:window-width="1375"
     inkscape:window-height="876"
     id="namedview89"
     showgrid="false"
     inkscape:zoom="4.9166667"
     inkscape:cx="-12"
     inkscape:cy="24"
     inkscape:window-x="65"
     inkscape:window-y="24"
     inkscape:window-maximized="1"
     inkscape:current-layer="svg2" />
  <defs
     id="defs4">
    <linearGradient
       id="linearGradient3764"
       x1="1"
       x2="47"
       gradientUnits="userSpaceOnUse"
       gradientTransform="matrix(0,-1,1,0,-1.5e-6,47.999998)">
      <stop
         stop-color="#f88e10"
         stop-opacity="1"
         id="stop7" />
      <stop
         offset="1"
         stop-color="#f99824"
         stop-opacity="1"
         id="stop9" />
    </linearGradient>
    <clipPath
       id="clipPath-161930992">
      <g
         transform="translate(0,-1004.3622)"
         id="g12">
        <path
           d="m -24 13 c 0 1.105 -0.672 2 -1.5 2 -0.828 0 -1.5 -0.895 -1.5 -2 0 -1.105 0.672 -2 1.5 -2 0.828 0 1.5 0.895 1.5 2 z"
           transform="matrix(15.333333,0,0,11.5,414.99999,878.8622)"
           fill="#1890d0"
           id="path14" />
      </g>
    </clipPath>
    <clipPath
       id="clipPath-167683090">
      <g
         transform="translate(0,-1004.3622)"
         id="g17">
        <path
           d="m -24 13 c 0 1.105 -0.672 2 -1.5 2 -0.828 0 -1.5 -0.895 -1.5 -2 0 -1.105 0.672 -2 1.5 -2 0.828 0 1.5 0.895 1.5 2 z"
           transform="matrix(15.333333,0,0,11.5,414.99999,878.8622)"
           fill="#1890d0"
           id="path19" />
      </g>
    </clipPath>
    <radialGradient
       id="radial0"
       gradientUnits="userSpaceOnUse"
       cx="21.561"
       cy="27.06"
       r="13.438"
       gradientTransform="matrix(3.377318,0,0,3.675381,-53.667491,-63.501833)">
      <stop
         stop-color="#ce5b00"
         stop-opacity="0.71"
         id="stop22" />
      <stop
         offset="1"
         stop-color="#f47800"
         stop-opacity="0.71"
         id="stop24" />
    </radialGradient>
    <radialGradient
       id="radial1"
       gradientUnits="userSpaceOnUse"
       cx="24.471"
       cy="23.21"
       r="14.529"
       gradientTransform="matrix(3.23174,-5.91588e-7,9.13104e-7,2.140921,-54.375419,-22.763309)">
      <stop
         stop-color="#fff"
         stop-opacity="0.416"
         id="stop27" />
      <stop
         offset="1"
         stop-color="#fff"
         stop-opacity="0"
         id="stop29" />
    </radialGradient>
    <radialGradient
       id="radialGradient31"
       gradientUnits="userSpaceOnUse"
       cx="21.561"
       cy="27.06"
       r="13.438"
       gradientTransform="matrix(3.377318,0,0,3.675381,-53.667491,-63.501833)">
      <stop
         stop-color="#ce5b00"
         stop-opacity="0.71"
         id="stop33" />
      <stop
         offset="1"
         stop-color="#f47800"
         stop-opacity="0.71"
         id="stop35" />
    </radialGradient>
    <radialGradient
       id="radialGradient37"
       gradientUnits="userSpaceOnUse"
       cx="24.471"
       cy="23.21"
       r="14.529"
       gradientTransform="matrix(3.23174,-0.000000591588,0.000000913104,2.140921,-54.375419,-22.763309)">
      <stop
         stop-color="#fff"
         stop-opacity="0.416"
         id="stop39" />
      <stop
         offset="1"
         stop-color="#fff"
         stop-opacity="0"
         id="stop41" />
    </radialGradient>
    <linearGradient
       id="linearGradient3764-2"
       x1="1"
       x2="47"
       gradientUnits="userSpaceOnUse"
       gradientTransform="matrix(0,-1,1,0,-1.5e-6,47.999998)">
      <stop
         stop-color="#b5945b"
         stop-opacity="1"
         id="stop7-0" />
      <stop
         offset="1"
         stop-color="#bb9e69"
         stop-opacity="1"
         id="stop9-8" />
    </linearGradient>
    <clipPath
       id="clipPath-899834956">
      <g
         transform="translate(0,-1004.3622)"
         id="g12-0">
        <path
           d="m -24 13 c 0 1.105 -0.672 2 -1.5 2 -0.828 0 -1.5 -0.895 -1.5 -2 0 -1.105 0.672 -2 1.5 -2 0.828 0 1.5 0.895 1.5 2 z"
           transform="matrix(15.333333,0,0,11.5,414.99999,878.8622)"
           fill="#1890d0"
           id="path14-3" />
      </g>
    </clipPath>
    <clipPath
       id="clipPath-909443126">
      <g
         transform="translate(0,-1004.3622)"
         id="g17-7">
        <path
           d="m -24 13 c 0 1.105 -0.672 2 -1.5 2 -0.828 0 -1.5 -0.895 -1.5 -2 0 -1.105 0.672 -2 1.5 -2 0.828 0 1.5 0.895 1.5 2 z"
           transform="matrix(15.333333,0,0,11.5,414.99999,878.8622)"
           fill="#1890d0"
           id="path19-6" />
      </g>
    </clipPath>
    <clipPath
       id="clipPath-909443126-7">
      <g
         transform="translate(0,-1004.3622)"
         id="g17-2">
        <path
           style="fill:#1890d0"
           inkscape:connector-curvature="0"
           d="m -24,13 c 0,1.105 -0.672,2 -1.5,2 -0.828,0 -1.5,-0.895 -1.5,-2 0,-1.105 0.672,-2 1.5,-2 0.828,0 1.5,0.895 1.5,2 z"
           transform="matrix(15.333333,0,0,11.5,414.99999,878.8622)"
           id="path19-3" />
      </g>
    </clipPath>
    <linearGradient
       id="linearGradient3759">
      <stop
         id="stop3761"
         offset="0"
         style="stop-color:#a75e15;stop-opacity:1;" />
      <stop
         id="stop3763"
         offset="1"
         style="stop-color:#ffffff;stop-opacity:0;" />
    </linearGradient>
    <linearGradient
       id="linearGradient3777">
      <stop
         id="stop3779"
         offset="0"
         style="stop-color:#e0dd00;stop-opacity:1;" />
      <stop
         id="stop3781"
         offset="1"
         style="stop-color:#000000;stop-opacity:0;" />
    </linearGradient>
    <clipPath
       id="clipPath-167683090-8">
      <g
         transform="translate(0,-1004.3622)"
         id="g17-5">
        <path
           style="fill:#1890d0"
           inkscape:connector-curvature="0"
           d="m -24,13 c 0,1.105 -0.672,2 -1.5,2 -0.828,0 -1.5,-0.895 -1.5,-2 0,-1.105 0.672,-2 1.5,-2 0.828,0 1.5,0.895 1.5,2 z"
           transform="matrix(15.333333,0,0,11.5,414.99999,878.8622)"
           id="path19-5" />
      </g>
    </clipPath>
    <radialGradient
       id="radial0-1"
       gradientUnits="userSpaceOnUse"
       cx="21.561001"
       cy="27.059999"
       r="13.438"
       gradientTransform="matrix(3.377318,0,0,3.675381,-53.667491,-63.501833)">
      <stop
         stop-color="#ce5b00"
         stop-opacity="0.71"
         id="stop22-8" />
      <stop
         offset="1"
         stop-color="#f47800"
         stop-opacity="0.71"
         id="stop24-1" />
    </radialGradient>
    <radialGradient
       id="radial1-9"
       gradientUnits="userSpaceOnUse"
       cx="24.471001"
       cy="23.209999"
       r="14.529"
       gradientTransform="matrix(3.23174,-5.91588e-7,9.13104e-7,2.140921,-54.375419,-22.763309)">
      <stop
         stop-color="#fff"
         stop-opacity="0.416"
         id="stop27-3" />
      <stop
         offset="1"
         stop-color="#fff"
         stop-opacity="0"
         id="stop29-6" />
    </radialGradient>
  </defs>
  <g
     id="g55" />
  <g
     id="g3115">
    <g
       inkscape:label="shadows"
       id="layer2">
      <rect
         ry="13.03658"
         rx="13.03658"
         y="1"
         x="1"
         height="46"
         width="46"
         id="rect3007"
         style="opacity:0.1;fill:#000000;fill-opacity:1;fill-rule:nonzero;stroke:none" />
      <rect
         style="opacity:0.1;fill:#000000;fill-opacity:1;fill-rule:nonzero;stroke:none"
         id="rect3011"
         width="47"
         height="47"
         x="0.5"
         y="0.5"
         rx="13.319984"
         ry="13.319984" />
      <rect
         style="opacity:0.1;fill:#000000;fill-opacity:1;fill-rule:nonzero;stroke:none"
         id="rect3013"
         width="46.5"
         height="46.5"
         x="0.75"
         y="0.75"
         rx="13.178282"
         ry="13.178282" />
    </g>
    <g
       style="display:inline"
       inkscape:label="background-color"
       id="layer1">
      <rect
         transform="matrix(0,-1,1,0,0,0)"
         ry="12.753176"
         rx="12.753176"
         y="1.5"
         x="-46.5"
         height="45"
         width="45"
         id="rect2988"
         style="fill:#f88e10;fill-opacity:1;fill-rule:nonzero;stroke:none" />
    </g>
  </g>
  <g
     id="g73-8"
     transform="matrix(0.91156964,0,0,0.91156964,2.12233,2.1223286)">
    <g
       clip-path="url(#clipPath-167683090-8)"
       id="g75-2">
      <!-- color: #f99824 -->
      <g
         id="g77-4">
        <path
           d="m 0,0 0,6.188 c 6.48,9.453 13.242,19.359 20.594,30.16 L 7.406,0.008 0,0.008 m 20.594,36.33 17.719,-36.34 -10.469,0 c -2.246,11.441 -4.652,23.48 -7.25,36.34 m 0,0 27.406,-7.75 0,-6.816 c -8.73,4.652 -17.93,9.551 -27.406,14.566 m 0,0 L 48,46.682 48,40.557 C 39.195,39.217 30.156,37.838 20.594,36.338 m 0,0 4.25,11.648 3.719,0 C 25.93,44.134 23.395,40.443 20.594,36.338 m 0,0 -5.625,11.648 3.344,0 c 0.742,-3.793 1.473,-7.645 2.281,-11.648 m 0,0 L 0,42.182 0,47.245 c 6.73,-3.57 13.434,-7.121 20.594,-10.906 m 0,0 L 0,28.558 0,33.121 c 6.805,1.066 13.426,2.098 20.594,3.219 m 0,0"
           id="path79-9"
           style="fill:url(#radial0-1);fill-rule:evenodd;stroke:none"
           inkscape:connector-curvature="0" />
        <path
           d="M 48,19.625 C 43.164,24.063 35.89,26.152 27.281,25.594 17.191,24.938 7.64,25.281 0.001,29.969 l 0,18.03 48,0 m 0,-28.375"
           id="path81-0"
           style="fill:url(#radial1-9);fill-rule:evenodd;stroke:none"
           inkscape:connector-curvature="0" />
        <path
           d="M 23.402,12.195 29,11.004 29,29.766 c 0,2.426 -0.738,4.238 -2.211,5.438 -1.465,1.199 -3.684,1.801 -6.66,1.801 l -1.133,0 0,-3.793 0.871,0 c 1.164,0 2.043,-0.289 2.629,-0.871 0.602,-0.582 0.898,-1.438 0.898,-2.57 l 0,-17.57"
           id="path83-8"
           inkscape:connector-curvature="0"
           style="fill:#f9f9f9;fill-opacity:1;fill-rule:nonzero;stroke:none" />
      </g>
    </g>
  </g>
</svg>
